X: 1723
T: Senelerce Aşkı Anmış
C: Sabri Süha Ansen
O: Turkey
F: http://compmusic.upf.edu/node/140
N: hicazkar--sarki--curcuna--senelerce--sabri_suha_ansen
N: makam= hicazkar
N: form= sarki
N: usul= curcuna = 10/8
M: 10/8
L: 1/16
K: C _1/4B _7/8e _7/8A ^f
Q: 1/4=240
%%MIDI tuningsystem comma53
B8-B2c2 d2B2 A2G2  | c16-c4  | B8-B2c2 d2B2 A2G2  | \
w:  ARANAĞME  |   |   | 
d14d2 e2f2  | g3f e2d2 c2B2 c2d2 e2=f2  | 
w:   |   | 
=f4 a2g2 f2e2 d2e6  | B8-B2d8-d2  | g3f e2d2 c2B2 A2G6  | \
w:   |   |   | 
B8-B2c2 d2B2 A2G2  | 
w:  ARANAĞME  | 
c16-c4  | B8-B2c2 d2B2 A2G2  | d14d2 e2f2  | \
w:   |   |   | 
g3f e2d2 c2B2 c2d2 e2=f2  | 
w:   | 
=f4 a2g2 f2e2 d2e6  | B8-B2d8-d2  | g3f e2d2 c2B2 A2G6  | \
w:   |   |   | 
g6d4e2 d2c2 B2c2  | 
w:  Se ne ler  | 
d16-d4  | B6B4c2 d2B2 A2G2  | c8-c2B2 A2G6  | \
w:  ce   |  aş kı  an  |  mış    | 
e6e4e2 f2d4c2  | e8-e2e2 ede6  | 
w:  Mah zun  kalp  |  ler   | 
d6e4f2 g2e4f2  | g3f e2d2 c2B2 A2G6  | \
w:  hep  ağ lar  |  mış   *  *  SAZ  | 
g6d4e2 d2c2 B2c2  | 
w:  Se ne ler  | 
d16-d4  | B6B4c2 d2B2 A2G2  | c8-c2B2 A2G6  | \
w:  ce   |  aş kı  an  |  mış    | 
e6e4e2 f2d4c2  | e8-e2e2 ede6  | 
w:  Mah zun  kalp  |  ler   | 
d6e4f2 g2e4f2  | g4 a2g2 f2e2 f2g6  | \
w:  hep  ağ lar  |  mış   *  *  SAZ  | 
g6b4a2 g2f2 g2a2  | g8-g2g2 f2e2 d2c2  | 
w:  Gül  du dak  |  lar   | 
d6_1/4e4=f2 g2f2 g2_7/8e2  | d8-d2e2 {f}ede6  | \
w:  da  sa rar  |  mış    | 
G6A4B2 c2d2 e2f2  | g3f e2d2 c2g3fe2 d2c2  | 
w:  Di yor lar   |  ki   | 
B6B4c2 d2B2 A2G2  | G3A B2c2 d2e2 f2g6  | \
w:  aşk  ya lan  |  mış   *  *  SAZ  | 
g6b4a2 g2f2 g2a2  | 
w:  Gül  du dak  | 
g8-g2g2 f2e2 d2c2  | d6_1/4e4=f2 g2f2 g2_7/8e2  | \
w:  lar   |  da  sa rar  | 
d8-d2e2 {f}ede6  | G6A4B2 c2d2 e2f2  | 
w:  mış    |  Di yor lar   | 
g3f e2d2 c2g3fe2 d2c2  | B6B4c2 d2B2 A2G2  | \
w:  ki   |  aşk  ya lan  | 
G14z6  | B8-B2c2 d2B2 A2G2  | 
w:  mış    |  ARANAĞME  | 
c16-c4  | B8-B2c2 d2B2 A2G2  | d14d2 e2f2  | \
w:   |   |   | 
g3f e2d2 c2B2 c2d2 e2=f2  | 
w:   | 
=f4 a2g2 f2e2 d2e6  | B8-B2d8-d2  | g3f e2d2 c2B2 A2G6  | \
w:   |   |   | 
B8-B2c2 d2B2 A2G2  | 
w:  ARANAĞME  | 
c16-c4  | B8-B2c2 d2B2 A2G2  | d14d2 e2f2  | \
w:   |   |   | 
g3f e2d2 c2B2 c2d2 e2=f2  | 
w:   | 
=f4 a2g2 f2e2 d2e6  | B8-B2d8-d2  | g3f e2d2 c2B2 A2G6  | \
w:   |   |   | 
g6d4e2 d2c2 B2c2  | 
w:  Se ne ler  | 
d16-d4  | B6B4c2 d2B2 A2G2  | c8-c2B2 A2G6  | \
w:  ce   |  aş kı  an  |  mış    | 
e6e4e2 f2d4c2  | e8-e2e2 ede6  | 
w:  Mah zun  kalp  |  ler   | 
d6e4f2 g2e4f2  | g3f e2d2 c2B2 A2G6  | \
w:  hep  ağ lar  |  mış   *  *  SAZ  | 
g6d4e2 d2c2 B2c2  | 
w:  Se ne ler  | 
d16-d4  | B6B4c2 d2B2 A2G2  | c8-c2B2 A2G6  | \
w:  ce   |  aş kı  an  |  mış    | 
e6e4e2 f2d4c2  | e8-e2e2 ede6  | 
w:  Mah zun  kalp  |  ler   | 
d6e4f2 g2e4f2  | g4 a2g2 f2e2 f2g6  | \
w:  hep  ağ lar  |  mış   *  *  SAZ  | 
g6b4a2 g2f2 g2a2  | g8-g2g2 f2e2 d2c2  | 
w:  Gül  du dak  |  lar   | 
d6_1/4e4=f2 g2f2 g2_7/8e2  | d8-d2e2 {f}ede6  | \
w:  da  sa rar  |  mış    | 
G6A4B2 c2d2 e2f2  | g3f e2d2 c2g3fe2 d2c2  | 
w:  Di yor lar   |  ki   | 
B6B4c2 d2B2 A2G2  | G3A B2c2 d2e2 f2g6  | \
w:  aşk  ya lan  |  mış   *  *  SAZ  | 
g6b4a2 g2f2 g2a2  | 
w:  Gül  du dak  | 
g8-g2g2 f2e2 d2c2  | d6_1/4e4=f2 g2f2 g2_7/8e2  | \
w:  lar   |  da  sa rar  | 
d8-d2e2 {f}ede6  | G6A4B2 c2d2 e2f2  | 
w:  mış    |  Di yor lar   | 
g3f e2d2 c2g3fe2 d2c2  | B6B4c2 d2B2 A2G2  | \
w:  ki   |  aşk  ya lan  | 
G14z6  | |


